X:1
T:My Grace Is Sufficient for Thee (Baker)
T:My Grace Is Sufficient for Thee (Baker)
T:L. H. Baker
T:L. H. Baker, 1899
T:Public Domain Courtesy of the Cyber Hymnal™
T:Public Domain Courtesy of the Cyber Hymnal™
C:L. H. Baker
Z:Public Domain
Z:Courtesy of the Cyber Hymnal™
%%score ( 1 2 ) ( 3 4 )
L:1/8
Q:1/4=117
M:6/4
K:Eb
V:1 treble 
V:2 treble 
V:3 bass 
V:4 bass 
V:1
 E2 | [EG]4 ([EF][EG]) [EA]4 ([EA][EA]) | [EB]4 [EB]2 [EG]4 ([EG][EG]) | %3
w: 1.~The|Seer came * back from *|par- a- dise To *|
w: 2.~A-|lone in~the * hush of~the *|si- lent night, A- *|
w: 3.~Like|thorns in~the * crown that~the *|Sav- ior wore, Come~our *|
 [FA]4 [=EG][FA] ([FA]2 [GB]2) [FA]2 | [EG]6- [EG]4 [B,E]2 | [EG]4 [EF][EG] [EA]4 ([EA][EA]) | %6
w: earth with its sorrow * and|pain; * There|float- ed to him from~re- *|
w: lone with my prayer * and|pain; * Came|sing- ing to me, with~the *|
w: “thorns in the flesh * a-|gain”; * He|whis- pers to each that *|
 ([EB]2 [EB]2) [EB]2 [EG]4 [EG]2 | [DB]4 [DF][DF] [DB]4 [EF]2 | [DB]6- [DB]4 ||"^Refrain" [DB]2 | %10
w: ful- * gent skies The|words of this glad re-|frain: *||
w: morn- * ing light, The|peace of this sweet re-|frain: *|“My|
w: message * of yore, The|joy of this same re-|frain: *||
 [EB]4 [EG][EG] [EG]2 [DA]2 [EB]2 | [Ec]6- [Ec]4 [Ac]2 | [Ac]4 [A=B][Ac] [Ae]2 [Ad]2 [Ac]2 | %13
w: |||
w: grace is suf- fi- cient for|thee; * My|grace is suf- fi- cient for|
w: |||
 [GB]6- [GB]4 [GB][GB] | [Ge]4 [GB][GB] [GB]2 [FA]2 [EG]2 | [FA]2 [DF]8 [DB]2 | %16
w: |||
w: thee; * For My|strength is made per- fect in|weak- ness; My|
w: |||
 [Fd]4 [Ac][GB] [FA]2 [EG]2 [DF]2 | [B,E]6- [B,E]4 |] %18
w: ||
w: grace is suf- fi- cient for|thee.” *|
w: ||
V:2
 E2 | x12 | x12 | x12 | x12 | x12 | x12 | x12 | x10 || x2 | x12 | x12 | x12 | x12 | x12 | x12 | %16
 x12 | x10 |] %18
V:3
 [E,G,]2 | [E,B,]4 ([E,A,][E,B,]) [E,C]4 ([E,C][E,C]) | [E,G,]4 [E,G,]2 [E,B,]4 ([E,B,][E,B,]) | %3
 [B,,B,]4 [B,,B,][B,,B,] ([B,,B,]2 [B,,B,]2) [B,,B,]2 | [E,B,]6- [E,B,]4 [E,G,]2 | %5
 [E,B,]4 [E,A,][E,B,] [E,C]4 ([E,C][E,C]) | ([E,G,]2 [E,G,]2) [E,G,]2 [E,B,]4 [E,B,]2 | %7
 [B,,B,]4 [B,,B,][B,,B,] [F,B,]4 [F,=A,]2 | [B,,F,]6- [B,,F,]4 || [B,,A,]2 | %10
 [E,G,]4 [E,B,][E,B,] [E,B,]2 [F,B,]2 [G,B,]2 | A,6- A,4 [A,E]2 | %12
 [A,E]4 [G,D][A,E] [A,C]2 [A,D]2 [A,E]2 | [E,E]6- [E,E]4 [E,E][E,E] | %14
 [E,B,]4 [E,E][E,E] [E,E]2 [E,B,]2 [E,B,]2 | [B,,B,]2 [B,,B,]8 [B,,F,]2 | %16
 [B,,B,]4 [B,,B,][B,,B,] [B,,B,]2 [B,,B,]2 [B,,A,]2 | [E,G,]6- [E,G,]4 |] %18
V:4
 x2 | x12 | x12 | x12 | x12 | x12 | x12 | x12 | x10 || x2 | x12 | A,6- A,4 x2 | x12 | x12 | x12 | %15
 x12 | x12 | x10 |] %18

